X: 115
T: Inimitable Reel
M: C|
Z: Mary Lou Knack
N: Pickup notes moved to the start of phrases.  Chords from unknown source.
R: reel
K: G
D2 \
| "G"G2 D2 "C"E2 DC | "G"B,D GB d2^cd | "Am"ed cB "C"cB AG | "D"FG AB cD EF |
| "G"G2 D2 "C"E2 DC | "G"B,D GB d2^cd | "Am"ed cB "C"cB AG | "D"FG AB "G"G2 :|
|: G2 \
| "G"Bd ze dB AG | Bd zd b2 g2 | Bd ze dB AG | "D"FG AB c2 BA |
| "G"Bd ze dB AG | Bd zd b2 g2 | Bd ze dB AG | "D"FG AF "G"G2 :|


